X:4
T:Land O' The Leal, The
C:arr. Carlo Minasi
M:2/4
L:1/8
B:Chappell's One Hundred Scotch Melodies
B:Arranged for the Concertina by Carlo Minasi
Q:"Andante  "1/4=120
Z:Peter Dunk 2012
K:Bb
!p!F|F2 (F>D)|F2B>B|[G2E2] ([GE]>[FD])|[G2E2] (Bc)|\
[d2B2F2] (c>B)|[B2F2D2] (d>c)|[B2G2E2] (G>F)|[F3D3B,3]|]
d|[d2B2F2](d>c)|[d2B2F2] (f>d)|[cAF]c (c>B)|[c2A2F2]([ec][ge])|\
[fdB]>d [c2A2F2]|[B2D2]"_a piacere"[dB]>[cF]|\
[B2D2]L[GE]>[FD]|[F3D3]|]
